X:1
T:There Is No Love Like the Love of Jesus
T:There Is No Love Like the Love of Jesus
T:Theodore E. Perkins, harm. H. Elliot Button
T:William Edensor Littlewood, 1857
T:Public Domain Courtesy of the Cyber Hymnal™
T:Public Domain Courtesy of the Cyber Hymnal™
C:Theodore E. Perkins, harm. H. Elliot Button
Z:Public Domain
Z:Courtesy of the Cyber Hymnal™
%%score ( 1 2 ) ( 3 4 )
L:1/8
Q:1/4=110
M:4/4
K:Ab
V:1 treble 
V:2 treble 
V:3 bass 
V:4 bass 
V:1
 E2 | [Ac]2 [Ac]2 [Ac]2 [AB][Ac] | [Ad]2 [Ac]2 B2 A2 | [EB]2 [EB][EB] [=DB]2 [FA]2 | [EG]6 E2 | %5
w: 1.~There|is no love like the|love of Je- sus,|Ne- ver to fade or|fall, Till|
w: 2.~There|is no eye like the|eye of Je- sus,|Pierc- ing so far a-|way; Ne’er|
w: 3.~There|is no voice like the|voice of Je- sus,|Ten- der and sweet its|chime— Like|
w: 4.~There|is no heart like the|heart of Je- sus,|Filled with a ten- der|love; No|
w: 5.~Oh,|let us hark to the|voice of Je- sus,|Then we shall ne- ver|roam; And|
 [Ec]2 [Ec][Ec] [Ec]2 [DB][Ec] | [Fd]2 [Ec]2 [DB]2 [CA][B,F] | [CE]4 [EA]2 [DB]2 | [CA]6 z2 || %9
w: in- to the fold of the|peace of God He has|ga- thered us|all.|
w: out of the sight of its|ten- der light Can the|wan- der- er|stray.|
w: mu- si- cal ring of a|flow- ing spring In the|bright sum- mer|time.|
w: throb no- r throe that our|hearts can know, But He|feels it a-|bove.|
w: we shall rest on His lov-|ing breast, In the dear|heav- en- ly|home.|
"^Refrain" [Fd]2 F2 [FA]4 | [Ec]2 [CE]2 [EA]4 | [EB]2 [EB][EB] [=DB]2 [FA]2 | G6 [DE]2 | %13
w: ||||
w: ||||
w: Je- sus’ love!|pre- cious love!|Bound- less and pure and|free! Oh,|
w: ||||
w: ||||
 [Cc]2 [Ec][Ec] [Ac]2 [AB][Ac] | [Ad]2 [Ac]2 !fermata![EB]2 [EA][DF] | [CE]4 [EA]2 [DB]2 | [CA]6 |] %17
w: ||||
w: ||||
w: turn to that love, wea- ry,|wan- d’ring soul! Je- sus|plead- eth for|thee.|
w: ||||
w: ||||
V:2
 E2 | x8 | x4 (FG) A2 | x8 | x6 E2 | x8 | x8 | x8 | x8 || x2 F2 x4 | x8 | x8 | (G2 F2 E2) x2 | x8 | %14
 x8 | x8 | x6 |] %17
V:3
 [E,E]2 | [A,E]2 [A,E]2 [A,E]2 [A,D][A,E] | [A,F]2 [A,E]2 [A,D]2 [A,C]2 | %3
 [G,B,]2 [G,B,][G,B,] [F,B,]2 [=D,B,]2 | [E,B,]6 [G,B,]2 | A,2 A,A, A,2 A,A, | %6
 A,2 A,2 [E,G,]2 [F,A,][D,A,] | [E,A,]4 [E,C]2 [E,G,]2 | A,6 z2 || [D,A,]2 [D,A,]2 [D,A,]4 | %10
 A,2 A,2 [A,C]4 | [G,B,]2 [G,B,][G,B,] [F,B,]2 [=D,B,]2 | (B,2 D2 C2) [G,B,]2 | %13
 A,2 [A,C][A,C] [A,E]2 [_G,E][G,E] | [F,D]2 [E,E]2 !fermata![D,G,]2 [C,A,][D,A,] | %15
 [E,A,]4 [E,C]2 [E,G,]2 | [A,,A,]6 |] %17
V:4
 x2 | x8 | x8 | x8 | x8 | A,2 A,A, A,2 A,A, | A,2 A,2 x4 | x8 | A,6 x2 || x8 | A,2 A,2 x4 | x8 | %12
 E,6 x2 | A,2 x6 | x8 | x8 | x6 |] %17

